app/images/icons/email.svg

<svg xmlns="http://www.w3.org/2000/svg" width="18" height="13"><path fill-rule="evenodd" fill="#436372" d="M17.624 12.629l-.001.002-.002.002a1.307 1.307 0 01-.907.361H1.286c-.354 0-.674-.138-.907-.362l-.002-.001-.001-.002A1.21 1.21 0 010 11.757V1.858C0 1.176.577.621 1.286.621h15.428c.709 0 1.286.555 1.286 1.237v9.899c0 .34-.144.648-.376.872zM7.536 6.325l-6.073 5.844h15.074l-6.074-5.844-.726.489c-.22.149-.479.223-.737.223-.259 0-.517-.074-.737-.223l-.727-.489zM.863 1.83c-.001.01-.006.018-.006.028v9.728l5.966-5.742L.863 1.83zm.925-.384l6.966 4.692a.445.445 0 00.492 0l6.965-4.692H1.788zm15.355.412c0-.01-.006-.018-.006-.028l-5.96 4.014 5.966 5.742V1.858z"/></svg>

<svg 
 xmlns="http://www.w3.org/2000/svg"
 xmlns:xlink="http://www.w3.org/1999/xlink"
 width="18px" height="13px">
<path fill-rule="evenodd"  fill="rgb(67, 99, 114)"
 d="M17.624,12.629 C17.624,12.629 17.624,12.631 17.623,12.631 C17.623,12.632 17.621,12.632 17.621,12.633 C17.388,12.856 17.068,12.994 16.714,12.994 L1.286,12.994 C0.932,12.994 0.612,12.856 0.379,12.632 C0.378,12.632 0.377,12.632 0.377,12.631 C0.376,12.631 0.376,12.630 0.376,12.629 C0.144,12.405 -0.000,12.097 -0.000,11.757 L-0.000,1.858 C-0.000,1.176 0.577,0.621 1.286,0.621 L16.714,0.621 C17.423,0.621 18.000,1.176 18.000,1.858 L18.000,11.757 C18.000,12.097 17.856,12.405 17.624,12.629 ZM7.536,6.325 L1.463,12.169 L16.537,12.169 L10.463,6.325 L9.737,6.814 C9.517,6.963 9.258,7.037 9.000,7.037 C8.741,7.037 8.483,6.963 8.263,6.814 L7.536,6.325 ZM0.863,1.830 C0.862,1.840 0.857,1.848 0.857,1.858 L0.857,11.586 L6.823,5.844 L0.863,1.830 ZM1.788,1.446 L8.754,6.138 C8.901,6.237 9.099,6.237 9.246,6.138 L16.211,1.446 L1.788,1.446 ZM17.143,1.858 C17.143,1.848 17.137,1.840 17.137,1.830 L11.177,5.844 L17.143,11.586 L17.143,1.858 Z"/>
</svg>
